X:19056
T:Sustead Schottische
R:Hornpipe
C:Trad.
O:England, Norfolk
Z:Paul Hardy's Session Tunebook 2015 (see www.paulhardy.net). Creative Commons cc by-nc-sa licenced.
M:4/4
L:1/8
Q:1/4=120
K:D
"D"fedB A2 F2|"G"GFGA B4|"Em"gfed "A"cA (3Bce|e2 A2 A4|
"D"fe dB A2 F2|"G"GF GA B4|"Em"gfed "A"cA (3Bce|"D"e2 d2 d4:|
|:"D"A2A2 d3 c|"G"B2B2 e4|"Em"gfed "A"cA (3Bce|e2 A2 A4|
"D"A2 A2 d3 c|"G"B2 B2 e4|"Em"gfed "A"cA (3Bce|"D"e2 d2 d4:|

